app/assets/svg/cat-lying-svg-desktop.svg

<svg width="700" height="504" viewBox="0 0 700 504" fill="none" xmlns="http://www.w3.org/2000/svg">
<path d="M537.347 -119.524C582.924 -36.9802 555.06 94.7931 581.844 202.801C608.629 310.808 690.062 394.837 699.134 483.323C708.207 571.596 644.917 664.113 558.516 733.926C472.33 803.526 363.032 850.421 275.982 820.714C188.716 791.006 123.699 684.484 35.3533 615.521C-52.9924 546.345 -164.667 514.728 -218.236 443.006C-272.021 371.496 -267.917 260.093 -217.804 180.096C-167.691 100.098 -71.7848 51.5053 14.4009 -18.0948C100.803 -87.9071 177.268 -178.727 275.118 -207.373C372.968 -236.02 491.77 -202.28 537.347 -119.524Z" fill="url(#paint0_linear)"/>
<defs>
<linearGradient id="paint0_linear" x1="221.5" y1="-279.789" x2="221.5" y2="566.971" gradientUnits="userSpaceOnUse">
<stop stop-color="#FF9B53"/>
<stop offset="1" stop-color="#F8B653"/>
</linearGradient>
</defs>
</svg>

<svg width="700" height="504" fill="none" xmlns="http://www.w3.org/2000/svg"><path d="M537.347-119.524c45.577 82.544 17.713 214.317 44.497 322.325 26.785 108.007 108.218 192.036 117.29 280.522 9.073 88.273-54.217 180.79-140.618 250.603-86.186 69.6-195.484 116.495-282.534 86.788-87.266-29.708-152.283-136.23-240.629-205.193-88.345-69.176-200.02-100.793-253.589-172.515-53.785-71.51-49.681-182.913.432-262.91 50.113-79.998 146.02-128.59 232.205-198.19 86.402-69.813 162.867-160.633 260.717-189.279 97.85-28.647 216.652 5.093 262.229 87.849Z" fill="url(#a)"/><defs><linearGradient id="a" x1="221.5" y1="-279.789" x2="221.5" y2="566.971" gradientUnits="userSpaceOnUse"><stop stop-color="#FF9B53"/><stop offset="1" stop-color="#F8B653"/></linearGradient></defs></svg>
